X:200
T: Pub in Abbeyfeale
C: Eamon Flynn
Z: B.Black
R: jig
M: 6/8
L: 1/8
K: D
F/2E/2 | DA,D FDF | AFA dfa | gec Ace |\
dAG FGE |
DA,D FDF | AFA dfa |1 gec Ace | edc d2 :|2\
gec aec | edc d2 ||
e | fef afd | FAd fed | gfg bge | Bdg bag |
fef afd | FAd fed | gfg bge | edc d2 :|
